packages/astro-components-stencil/src/icons/airline-seat-flat-angled.svg

<svg width="24" height="24" viewBox="0 0 24 24" fill="none" xmlns="http://www.w3.org/2000/svg">
<path fill-rule="evenodd" clip-rule="evenodd" d="M8.71002 6.19999C9.42002 7.68999 8.79002 9.47999 7.30002 10.2C5.80002 10.92 4.01002 10.29 3.30002 8.79999C2.58002 7.29999 3.21002 5.50999 4.70002 4.79999C6.20002 4.07999 7.99002 4.70999 8.71002 6.19999ZM22.25 14.29L21.56 16.18L9.20002 11.71L10.59 7.91999C10.97 6.88999 12.11 6.35999 13.15 6.72999L19.84 9.13999C21.94 9.89999 23.02 12.2 22.25 14.29ZM2.45002 12.48L8.00002 14.48V18C8.00002 18.55 8.45002 19 9.00002 19H15C15.55 19 16 18.55 16 18V17.37L19.58 18.66C20.1 18.85 20.68 18.58 20.87 18.06C21.06 17.54 20.79 16.96 20.27 16.77L3.13002 10.59C2.61002 10.4 2.03002 10.67 1.84002 11.19C1.66002 11.71 1.93002 12.29 2.45002 12.48Z" fill="black"/>
</svg>

<svg xmlns="http://www.w3.org/2000/svg" viewBox="0 0 24 24"><g xmlns="http://www.w3.org/2000/svg" id="airline-seat-flat-angled" fill-rule="nonzero">
            <path d="M22.25 14.29l-.69 1.89L9.2 11.71l1.39-3.79a2.007 2.007 0 012.56-1.19l6.69 2.41a4 4 0 012.41 5.15zm-19.8-1.81l5.55 2V18c0 .55.45 1 1 1h6c.55 0 1-.45 1-1v-.63l3.58 1.29c.52.19 1.1-.08 1.29-.6.19-.52-.08-1.1-.6-1.29L3.13 10.59c-.52-.19-1.1.08-1.29.6-.18.52.09 1.1.61 1.29zM7.3 10.2a3.01 3.01 0 001.41-4A3.005 3.005 0 004.7 4.8a2.99 2.99 0 00-1.4 4 2.99 2.99 0 004 1.4z"/>
        </g></svg>
